**harmony	**harte	**kern	**silbe	**rhyme	**timestamp	**phrase
*M4/4	*M4/4	*ICvox	*	*	*	*
*	*	*VRlead	*	*	*	*
*	*	*Hstimme	*	*	*	*
*D:	*D:	*D:	*	*	*	*
*	*	*M4/4	*	*	*	*
*	*	*clefG2	*	*	*	*
1r;	1r	r;	.	.	0	.
=1	=1	=1	=1	=1	=1	=1
*>Letter>A	*>Letter>A	*>Letter>A	*>Letter>A	*>Letter>A	*>Letter>A	*>Letter>A
*>Label>Verse	*>Label>Verse	*>Label>Verse	*>Label>Verse	*>Label>Verse	*>Label>Verse	*>Label>Verse
1DMm	D:7	4.~dd	Wow!	.	2.368	newline
.	.	8r	.	.	.	.
.	.	8g	I	.	.	.
.	.	8g	feel	.	.	.
.	.	8a	_	.	.	.
.	.	16f	good	A	.	.
.	.	[16d	_	.	.	.
=2	=2	=2	=2	=2	=2	=2
1DMm	D:7	4d]	_	.	4.021	.
.	.	4r	.	.	.	.
.	.	2r	.	.	.	.
=3	=3	=3	=3	=3	=3	=3
1DMm	D:7	4.r	.	.	5.674	.
.	.	8d	I	.	.	.
.	.	8d	knew	.	.	.
.	.	8c	that	.	.	.
.	.	8d	I	.	.	.
.	.	[8f	would	A	.	.
=4	=4	=4	=4	=4	=4	=4
1DMm	D:7	8f]	_	.	7.327	.
.	.	8d	now	.	.	.
.	.	4r	.	.	.	.
.	.	2r	.	.	.	.
=5	=5	=5	=5	=5	=5	=5
1GMm	G:7	2r	.	.	8.98	newline
.	.	8f	I	.	.	.
.	.	[8a-	feel	.	.	.
.	.	16a-]	_	.	.	.
.	.	16g	_	.	.	.
.	.	[8f	_	.	.	.
=6	=6	=6	=6	=6	=6	=6
1GMm	G:7	8f]	_	.	10.619	.
.	.	16f	good	A	.	.
.	.	16g	_	.	.	.
.	.	4r	.	.	.	.
.	.	2r	.	.	.	.
=7	=7	=7	=7	=7	=7	=7
1DMm	D:7	4.r	.	.	12.259	.
.	.	8d	I	.	.	.
.	.	8d	knew	.	.	.
.	.	8c	that	.	.	.
.	.	8d	I	.	.	.
.	.	[8f	would	A	.	.
=8	=8	=8	=8	=8	=8	=8
1DMm	D:7	8f]	_	.	13.899	.
.	.	8d	now	.	.	.
.	.	4r	.	.	.	.
.	.	2r	.	.	.	.
=9	=9	=9	=9	=9	=9	=9
1AMm	A:7	2r	.	.	15.538	newline
.	.	4r	.	.	.	.
.	.	8a	So	.	.	.
.	.	[8a	good	A	.	.
=10	=10	=10	=10	=10	=10	=10
1GMm	G:7	8a]	_	.	17.203	.
.	.	8r	.	.	.	.
.	.	4r	.	.	.	.
.	.	4r	.	.	.	.
.	.	8g	So	.	.	.
.	.	[8g	good	A	.	.
=11	=11	=11	=11	=11	=11	=11
1DMm	D:7	8g]	_	.	18.868	.
.	.	8r	.	.	.	.
.	.	4r	.	.	.	.
.	.	8f	I	.	.	.
.	.	8g	got	.	.	.
.	.	8f	uh	.	.	.
.	.	[8a	you	.	.	.
=12	=12	=12	=12	=12	=12	=12
1DMm	D:7	8a]	_	.	20.533	.
.	.	8r	.	.	.	.
.	.	4r	.	.	.	.
.	.	2r	.	.	.	.
=13	=13	=13	=13	=13	=13	=13
*>Letter>A	*>Letter>A	*>Letter>A	*>Letter>A	*>Letter>A	*>Letter>A	*>Letter>A
*>Label>Verse	*>Label>Verse	*>Label>Verse	*>Label>Verse	*>Label>Verse	*>Label>Verse	*>Label>Verse
1DMm	D:7	4.~dd	Wow!	.	22.198	newline
.	.	8r	.	.	.	.
.	.	8g	I	.	.	.
.	.	8g	feel	.	.	.
.	.	8a	_	.	.	.
.	.	16f	nice	B	.	.
.	.	[16d	_	.	.	.
=14	=14	=14	=14	=14	=14	=14
1DMm	D:7	4d]	_	.	23.87	.
.	.	4r	.	.	.	.
.	.	2r	.	.	.	.
=15	=15	=15	=15	=15	=15	=15
1DMm	D:7	4.r	.	.	25.543	.
.	.	8d	like	.	.	.
.	.	8d	su-	.	.	.
.	.	8c	-gar	.	.	.
.	.	8d	and	.	.	.
.	.	8f	spice	B	.	.
=16	=16	=16	=16	=16	=16	=16
1DMm	D:7	8e	_	.	27.215	.
.	.	4d	_	.	.	.
.	.	8r	.	.	.	.
.	.	2r	.	.	.	.
=17	=17	=17	=17	=17	=17	=17
1GMm	G:7	2r	.	.	28.887	newline
.	.	8f	I	.	.	.
.	.	[8a-	feel	.	.	.
.	.	8a-]	_	.	.	.
.	.	16g	_	.	.	.
.	.	[16f	_	.	.	.
=18	=18	=18	=18	=18	=18	=18
1GMm	G:7	8f]	_	.	30.546	.
.	.	8f	nice	B	.	.
.	.	16g	_	.	.	.
.	.	16r	.	.	.	.
.	.	8r	.	.	.	.
.	.	2r	.	.	.	.
=19	=19	=19	=19	=19	=19	=19
1DMm	D:7	4.r	.	.	32.205	.
.	.	8d	like	.	.	.
.	.	8d	su-	.	.	.
.	.	8c	-gar	.	.	.
.	.	8d	and	.	.	.
.	.	16f	spice	B	.	.
.	.	16e	_	.	.	.
=20	=20	=20	=20	=20	=20	=20
1DMm	D:7	4d	_	.	33.864	.
.	.	4r	.	.	.	.
.	.	2r	.	.	.	.
=21	=21	=21	=21	=21	=21	=21
1AMm	A:7	2r	.	.	35.523	newline
.	.	4r	.	.	.	.
.	.	8a	So	.	.	.
.	.	[8a	nice	B	.	.
=22	=22	=22	=22	=22	=22	=22
1GMm	G:7	8a]	_	.	37.171	.
.	.	8r	.	.	.	.
.	.	4r	.	.	.	.
.	.	4r	.	.	.	.
.	.	8g	So	.	.	.
.	.	[8g	nice	B	.	.
=23	=23	=23	=23	=23	=23	=23
1DMm	D:7	8g]	_	.	38.82	.
.	.	8r	.	.	.	.
.	.	4r	.	.	.	.
.	.	8f	I	.	.	.
.	.	8g	got	.	.	.
.	.	8f	uh	.	.	.
.	.	[8a	you	.	.	.
=24	=24	=24	=24	=24	=24	=24
1DMm	D:7	8a]	_	.	40.468	.
.	.	8r	.	.	.	.
.	.	4r	.	.	.	.
.	.	2r	.	.	.	.
=25	=25	=25	=25	=25	=25	=25
*>Letter>B	*>Letter>B	*>Letter>B	*>Letter>B	*>Letter>B	*>Letter>B	*>Letter>B
*>Label>Solo	*>Label>Solo	*>Label>Solo	*>Label>Solo	*>Label>Solo	*>Label>Solo	*>Label>Solo
1N	N	1r	.	.	42.117	newline
=26	=26	=26	=26	=26	=26	=26
1N	N	1r	.	.	43.765	.
=27	=27	=27	=27	=27	=27	=27
1N	N	1r	.	.	45.413	.
=28	=28	=28	=28	=28	=28	=28
1N	N	1r	.	.	47.062	.
=29	=29	=29	=29	=29	=29	=29
*>Letter>C	*>Letter>C	*>Letter>C	*>Letter>C	*>Letter>C	*>Letter>C	*>Letter>C
*>Label>Bridge	*>Label>Bridge	*>Label>Bridge	*>Label>Bridge	*>Label>Bridge	*>Label>Bridge	*>Label>Bridge
1GMm	G:7	2r	.	.	48.71	newline
.	.	4r	.	.	.	.
.	.	16f	When	.	.	.
.	.	16g	I	.	.	.
.	.	8r	.	.	.	.
=30	=30	=30	=30	=30	=30	=30
1GMm	G:7	8a	hold	.	50.321	.
.	.	8g	you	.	.	.
.	.	4r	.	.	.	.
.	.	8.r	.	.	.	.
.	.	[16cc	in	.	.	.
.	.	16cc]	_	.	.	.
.	.	8dd	my	.	.	.
.	.	[16dd	arms	C	.	.
=31	=31	=31	=31	=31	=31	=31
1DMm	D:7	2dd]	_	.	51.932	.
.	.	4r	.	.	.	.
.	.	8.r	.	.	.	.
.	.	16d	I	.	.	.
=32	=32	=32	=32	=32	=32	=32
1DMm	D:7	8d	know	.	53.543	.
.	.	8c	that	.	.	.
.	.	8d	I	.	.	.
.	.	[8d	can't	.	.	.
.	.	8.d]	_	.	.	.
.	.	[16f	do	.	.	.
.	.	16f]	_	.	.	.
.	.	8g	no	.	.	.
.	.	[16a-	wrong	C	.	.
=33	=33	=33	=33	=33	=33	=33
1GMm	G:7	8.a-]	_	.	55.155	newline
.	.	16g	_	.	.	.
.	.	4f	_	.	.	.
.	.	4.r	.	.	.	.
.	.	8d	And	.	.	.
=34	=34	=34	=34	=34	=34	=34
1GMm	G:7	8dd	when	.	56.796	.
.	.	4cc	I	.	.	.
.	.	[8a-	hold	.	.	.
.	.	16a-]	_	.	.	.
.	.	16g	_	.	.	.
.	.	8f	_	.	.	.
.	.	8g	you	.	.	.
.	.	[8f	in	.	.	.
=35	=35	=35	=35	=35	=35	=35
1AMm	A:7	8f]	_	.	58.437	.
.	.	8f	my	.	.	.
.	.	2d	arms	C	.	.
.	.	8r	.	.	.	.
.	.	8f	My	.	.	.
=36	=36	=36	=36	=36	=36	=36
1N	N	4g#	love	.	60.078	.
.	.	4a	won't	.	.	.
.	.	8a	do	.	.	.
.	.	8a	you	.	.	.
.	.	8g	no	.	.	.
.	.	[8a	harm	C	.	.
=37	=37	=37	=37	=37	=37	=37
*>Letter>A	*>Letter>A	*>Letter>A	*>Letter>A	*>Letter>A	*>Letter>A	*>Letter>A
*>Label>Verse	*>Label>Verse	*>Label>Verse	*>Label>Verse	*>Label>Verse	*>Label>Verse	*>Label>Verse
1DMm	D:7	16a]	_	.	61.719	newline
.	.	16g	_	.	.	.
.	.	8f	_	.	.	.
.	.	8.r	.	.	.	.
.	.	16a	and	.	.	.
.	.	8a	I	.	.	.
.	.	[8cc#	feel	.	.	.
.	.	4cc#_	_	.	.	.
=38	=38	=38	=38	=38	=38	=38
1DMm	D:7	4cc#]	_	.	63.379	.
.	.	2dd	_	.	.	.
.	.	8r	.	.	.	.
.	.	8f	nice	B	.	.
=39	=39	=39	=39	=39	=39	=39
1DMm	D:7	8e	_	.	65.039	.
.	.	4d	_	.	.	.
.	.	8d	like	.	.	.
.	.	8d	su-	.	.	.
.	.	8c	-gar	.	.	.
.	.	8d	and	.	.	.
.	.	[8c	spice	B	.	.
=40	=40	=40	=40	=40	=40	=40
1DMm	D:7	4c]	_	.	66.699	.
.	.	4r	.	.	.	.
.	.	2r	.	.	.	.
=41	=41	=41	=41	=41	=41	=41
1GMm	G:7	2r	.	.	68.359	newline
.	.	8f	I	.	.	.
.	.	[8a-	feel	.	.	.
.	.	16a-]	_	.	.	.
.	.	16g	_	.	.	.
.	.	[8f	_	.	.	.
=42	=42	=42	=42	=42	=42	=42
1GMm	G:7	8f]	_	.	70.018	.
.	.	8f	nice	B	.	.
.	.	8g	_	.	.	.
.	.	8r	.	.	.	.
.	.	2r	.	.	.	.
=43	=43	=43	=43	=43	=43	=43
1DMm	D:7	4.r	.	.	71.677	.
.	.	8d	like	.	.	.
.	.	8d	su-	.	.	.
.	.	8c	-gar	.	.	.
.	.	8d	and	.	.	.
.	.	[8f	spice	B	.	.
=44	=44	=44	=44	=44	=44	=44
1DMm	D:7	16f]	_	.	73.335	.
.	.	16e	_	.	.	.
.	.	8d	_	.	.	.
.	.	4r	.	.	.	.
.	.	2r	.	.	.	.
=45	=45	=45	=45	=45	=45	=45
1AMm	A:7	2r	.	.	74.994	newline
.	.	4r	.	.	.	.
.	.	8a	So	.	.	.
.	.	[8a	nice	B	.	.
=46	=46	=46	=46	=46	=46	=46
1GMm	G:7	8a]	_	.	76.633	.
.	.	8r	.	.	.	.
.	.	4r	.	.	.	.
.	.	4r	.	.	.	.
.	.	8f	So	.	.	.
.	.	[8g	nice	B	.	.
=47	=47	=47	=47	=47	=47	=47
1DMm	D:7	4g]	_	.	78.271	.
.	.	8.r	.	.	.	.
.	.	16f	'cause	.	.	.
.	.	8f	I	.	.	.
.	.	8g	got	.	.	.
.	.	8f	uh	.	.	.
.	.	[8a	you	.	.	.
=48	=48	=48	=48	=48	=48	=48
1DMm	D:7	8a]	_	.	79.91	.
.	.	8r	.	.	.	.
.	.	4r	.	.	.	.
.	.	2r	.	.	.	.
=49	=49	=49	=49	=49	=49	=49
*>Letter>B	*>Letter>B	*>Letter>B	*>Letter>B	*>Letter>B	*>Letter>B	*>Letter>B
*>Label>Solo	*>Label>Solo	*>Label>Solo	*>Label>Solo	*>Label>Solo	*>Label>Solo	*>Label>Solo
1N	N	1r	.	.	81.548	newline
=50	=50	=50	=50	=50	=50	=50
1N	N	1r	.	.	83.207	.
=51	=51	=51	=51	=51	=51	=51
1N	N	1r	.	.	84.865	.
=52	=52	=52	=52	=52	=52	=52
1N	N	1r	.	.	86.524	.
=53	=53	=53	=53	=53	=53	=53
*>Letter>C	*>Letter>C	*>Letter>C	*>Letter>C	*>Letter>C	*>Letter>C	*>Letter>C
*>Label>Bridge	*>Label>Bridge	*>Label>Bridge	*>Label>Bridge	*>Label>Bridge	*>Label>Bridge	*>Label>Bridge
1GMm	G:7	2r	.	.	88.182	newline
.	.	8r	.	.	.	.
.	.	16f	When	.	.	.
.	.	16g	I	.	.	.
.	.	16r	.	.	.	.
.	.	8a	hold	.	.	.
.	.	16g	you	.	.	.
=54	=54	=54	=54	=54	=54	=54
1GMm	G:7	8f	_	.	89.802	.
.	.	8r	.	.	.	.
.	.	4r	.	.	.	.
.	.	8r	.	.	.	.
.	.	16r	.	.	.	.
.	.	16cc	in	.	.	.
.	.	8.dd	my	.	.	.
.	.	[16dd	arms	C	.	.
=55	=55	=55	=55	=55	=55	=55
1DMm	D:7	2dd]	_	.	91.422	.
.	.	4r	.	.	.	.
.	.	8.r	.	.	.	.
.	.	16d	I	.	.	.
=56	=56	=56	=56	=56	=56	=56
1DMm	D:7	8d	know	.	93.043	.
.	.	8c	that	.	.	.
.	.	8d	I	.	.	.
.	.	[8d	can't	.	.	.
.	.	8.d]	_	.	.	.
.	.	[16f	do	.	.	.
.	.	16f]	_	.	.	.
.	.	8g	no	.	.	.
.	.	[16a-	wrong	C	.	.
=57	=57	=57	=57	=57	=57	=57
1GMm	G:7	8.a-]	_	.	94.663	newline
.	.	16g	_	.	.	.
.	.	8f	_	.	.	.
.	.	8r	.	.	.	.
.	.	4r	.	.	.	.
.	.	8r	.	.	.	.
.	.	8d	And	.	.	.
=58	=58	=58	=58	=58	=58	=58
1GMm	G:7	8dd	when	.	96.333	.
.	.	4cc	I	.	.	.
.	.	[8a-	hold	.	.	.
.	.	16a-]	_	.	.	.
.	.	16g	_	.	.	.
.	.	8f	_	.	.	.
.	.	8g	you	.	.	.
.	.	[8f	in	.	.	.
=59	=59	=59	=59	=59	=59	=59
1AMm	A:7	8f]	_	.	98.004	.
.	.	8f	my	.	.	.
.	.	2d	arms	C	.	.
.	.	8r	.	.	.	.
.	.	8f	My	.	.	.
=60	=60	=60	=60	=60	=60	=60
1N	N	4a	love	.	99.675	.
.	.	4a	can't	.	.	.
.	.	8a	do	.	.	.
.	.	8a	me	.	.	.
.	.	8g	no	.	.	.
.	.	[8a	harm	C	.	.
=61	=61	=61	=61	=61	=61	=61
*>Letter>A	*>Letter>A	*>Letter>A	*>Letter>A	*>Letter>A	*>Letter>A	*>Letter>A
*>Label>Verse	*>Label>Verse	*>Label>Verse	*>Label>Verse	*>Label>Verse	*>Label>Verse	*>Label>Verse
1DMm	D:7	16a]	_	.	101.346	newline
.	.	16g	_	.	.	.
.	.	8f	_	.	.	.
.	.	8.r	.	.	.	.
.	.	16a	and	.	.	.
.	.	8a	I	.	.	.
.	.	[8cc#	feel	.	.	.
.	.	4cc#_	_	.	.	.
=62	=62	=62	=62	=62	=62	=62
1DMm	D:7	4cc#]	_	.	103.034	.
.	.	2dd	_	.	.	.
.	.	8r	.	.	.	.
.	.	16f	nice	B	.	.
.	.	16e	_	.	.	.
=63	=63	=63	=63	=63	=63	=63
1DMm	D:7	4.d	_	.	104.722	.
.	.	8d	like	.	.	.
.	.	8d	su-	.	.	.
.	.	8c	-gar	.	.	.
.	.	8d	and	.	.	.
.	.	[8c	spice	B	.	.
=64	=64	=64	=64	=64	=64	=64
1DMm	D:7	4c]	_	.	106.411	.
.	.	4r	.	.	.	.
.	.	2r	.	.	.	.
=65	=65	=65	=65	=65	=65	=65
1GMm	G:7	2r	.	.	108.099	newline
.	.	8f	I	.	.	.
.	.	[8a-	feel	.	.	.
.	.	16a-]	_	.	.	.
.	.	16g	_	.	.	.
.	.	[8f	_	.	.	.
=66	=66	=66	=66	=66	=66	=66
1GMm	G:7	8f]	_	.	109.77	.
.	.	8f	nice	B	.	.
.	.	16g	_	.	.	.
.	.	16r	.	.	.	.
.	.	8r	.	.	.	.
.	.	2r	.	.	.	.
=67	=67	=67	=67	=67	=67	=67
1DMm	D:7	4.r	.	.	111.44	.
.	.	8d	like	.	.	.
.	.	8d	su-	.	.	.
.	.	8c	-gar	.	.	.
.	.	8.d	and	.	.	.
.	.	[16f	spice	B	.	.
=68	=68	=68	=68	=68	=68	=68
1DMm	D:7	8f]	_	.	113.111	.
.	.	8e	_	.	.	.
.	.	8d	_	.	.	.
.	.	8r	.	.	.	.
.	.	2r	.	.	.	.
=69	=69	=69	=69	=69	=69	=69
1AMm	A:7	2r	.	.	114.782	newline
.	.	4r	.	.	.	.
.	.	8a	So	.	.	.
.	.	[8a	nice	B	.	.
=70	=70	=70	=70	=70	=70	=70
1GMm	G:7	8a]	_	.	116.451	.
.	.	8r	.	.	.	.
.	.	4r	.	.	.	.
.	.	4r	.	.	.	.
.	.	8f	So	.	.	.
.	.	[8g	nice	B	.	.
=71	=71	=71	=71	=71	=71	=71
1DMm	D:7	4g]	_	.	118.12	.
.	.	8.r	.	.	.	.
.	.	16f	'cause	.	.	.
.	.	8f	I	.	.	.
.	.	8g	got	.	.	.
.	.	8f	uh	.	.	.
.	.	[8a	you	.	.	.
=72	=72	=72	=72	=72	=72	=72
1DMm	D:7	8a]	_	.	119.789	.
.	.	8r	.	.	.	.
.	.	4r	.	.	.	.
.	.	2r	.	.	.	.
=73	=73	=73	=73	=73	=73	=73
*>Letter>A2	*>Letter>A2	*>Letter>A2	*>Letter>A2	*>Letter>A2	*>Letter>A2	*>Letter>A2
*>Label>Verse	*>Label>Verse	*>Label>Verse	*>Label>Verse	*>Label>Verse	*>Label>Verse	*>Label>Verse
1DMm	D:7	4.~dd	Wow!	.	121.459	newline
.	.	8r	.	.	.	.
.	.	8g	I	.	.	.
.	.	8g	feel	.	.	.
.	.	8a	_	.	.	.
.	.	16f	good	A	.	.
.	.	[16d	_	.	.	.
=74	=74	=74	=74	=74	=74	=74
1DMm	D:7	8d]	_	.	123.132	.
.	.	8r	.	.	.	.
.	.	4r	.	.	.	.
.	.	2r	.	.	.	.
=75	=75	=75	=75	=75	=75	=75
1DMm	D:7	4.r	.	.	124.805	.
.	.	8d	I	.	.	.
.	.	8d	knew	.	.	.
.	.	8c	that	.	.	.
.	.	8d	I	.	.	.
.	.	[8f	would	A	.	.
=76	=76	=76	=76	=76	=76	=76
1DMm	D:7	8f]	_	.	126.478	.
.	.	8d	now	.	.	.
.	.	4r	.	.	.	.
.	.	2r	.	.	.	.
=77	=77	=77	=77	=77	=77	=77
1GMm	G:7	2r	.	.	128.151	newline
.	.	8f	I	.	.	.
.	.	[8a-	feel	.	.	.
.	.	8.a-]	_	.	.	.
.	.	16g	_	.	.	.
=78	=78	=78	=78	=78	=78	=78
1GMm	G:7	8f	_	.	129.842	.
.	.	16f	good	A	.	.
.	.	16g	_	.	.	.
.	.	4r	.	.	.	.
.	.	2r	.	.	.	.
=79	=79	=79	=79	=79	=79	=79
1DMm	D:7	4.r	.	.	131.533	.
.	.	8d	I	.	.	.
.	.	8f	knew	.	.	.
.	.	8g	that	.	.	.
.	.	8a	I	.	.	.
.	.	16a	would	A	.	.
.	.	16g	_	.	.	.
=80	=80	=80	=80	=80	=80	=80
1DMm	D:7	4f	_	.	133.224	.
.	.	4r	.	.	.	.
.	.	2r	.	.	.	.
=81	=81	=81	=81	=81	=81	=81
1AMm	A:7	2r	.	.	134.915	newline
.	.	4r	.	.	.	.
.	.	8a	So	.	.	.
.	.	[8a	good	A	.	.
=82	=82	=82	=82	=82	=82	=82
1GMm	G:7	8a]	_	.	136.573	.
.	.	8r	.	.	.	.
.	.	4r	.	.	.	.
.	.	4r	.	.	.	.
.	.	8g	So	.	.	.
.	.	[8g	good	A	.	.
=83	=83	=83	=83	=83	=83	=83
1DMm	D:7	8g]	_	.	138.23	.
.	.	8r	.	.	.	.
.	.	8.r	.	.	.	.
.	.	16f	'cause	.	.	.
.	.	8f	I	.	.	.
.	.	8g	got	.	.	.
.	.	8f	uh	.	.	.
.	.	[8a	you	.	.	.
=84	=84	=84	=84	=84	=84	=84
1DMm	D:7	8a]	_	.	139.888	.
.	.	8r	.	.	.	.
.	.	4r	.	.	.	.
.	.	2r	.	.	.	.
=85	=85	=85	=85	=85	=85	=85
1AMm	A:7	2r	.	.	141.545	newline
.	.	4r	.	.	.	.
.	.	8a	So	.	.	.
.	.	[8a	good	A	.	.
=86	=86	=86	=86	=86	=86	=86
1GMm	G:7	8a]	_	.	143.224	.
.	.	8r	.	.	.	.
.	.	4r	.	.	.	.
.	.	4r	.	.	.	.
.	.	8g	So	.	.	.
.	.	[8g	good	A	.	.
=87	=87	=87	=87	=87	=87	=87
1DMm	D:7	8g]	_	.	144.903	.
.	.	8r	.	.	.	.
.	.	8.r	.	.	.	.
.	.	16f	'cause	.	.	.
.	.	8f	I	.	.	.
.	.	8g	got	.	.	.
.	.	8f	uh	.	.	.
.	.	16a	you	.	.	.
.	.	16g	_	.	.	.
=88	=88	=88	=88	=88	=88	=88
1DMm	D:7	1r	.	.	146.582	.
=89	=89	=89	=89	=89	=89	=89
1AMm	A:7	2r	.	.	148.262	newline
.	.	4r	.	.	.	.
.	.	8a	So	.	.	.
.	.	[8a	good	A	.	.
=90	=90	=90	=90	=90	=90	=90
1GMm	G:7	8a]	_	.	150.074	.
.	.	8r	.	.	.	.
.	.	4r	.	.	.	.
.	.	4r	.	.	.	.
.	.	8g	So	.	.	.
.	.	16g	good	A	.	.
.	.	16f	_	.	.	.
=91	=91	=91	=91	=91	=91	=91
1DMm	D:7	8d	_	.	151.886	.
.	.	8r	.	.	.	.
.	.	4r	.	.	.	.
.	.	8f	I	.	.	.
.	.	8g	got	.	.	.
.	.	8f	uh	.	.	.
.	.	16a	you	.	.	.
.	.	16g	_	.	.	.
=92	=92	=92	=92	=92	=92	=92
1DMm	D:7	4f	_	.	153.698	.
.	.	4r	.	.	.	.
.	.	2r	.	.	.	.
=93	=93	=93	=93	=93	=93	=93
1DMm	D:7	1r	.	.	155.51	.
=94	=94	=94	=94	=94	=94	=94
1DMm	D:7	4~dd	Hey!	.	157.323	.
.	.	4r	.	.	.	.
.	.	2r	.	.	.	.
=95	=95	=95	=95	=95	=95	=95
1DMm	D:9	1r	.	.	159.135	newline
1r;	1r	r;	.	.	165.512	.
1r;	1r	r;	.	.	168.777	.
*-	*-	*-	*-	*-	*-	*-
!!!BillboardChartDate: 1965/11/27
!!!BillboardPeak: 3
!!!BillboardWeeksOnChart: 12
!!!COC: James Brown
!!!ENC: Nathaniel Condit-Schultz
!!!EST: Awating manual error checking and editing.
!!!OTL: I Got You (I Feel Good)
!!!RDF**chordsym: original McGill chord annotation + (implied pitch class set, with bass pitch in first position)
!!!RDF**harmony: **recip + pitch class of root + harmonic quality
!!!RDF**leadinstrument: original McGill primary instrumentation annotation
!!!RDF**phrase: newline = linebreak in original McGill transcription
!!!RDF**timestamp: McGill audio timestamp in seconds
!!!RDT: 2017/01/12/
!!!SampleActualRank: 9
!!!SampleID#: 0314
!!!SampleTargetRank: 8
!!!MBID: d4b4be5a-737d-4e50-9d85-b43f16d6c618